X:1
T:Peace, Be Still
T:Peace, Be Still
T:John McPherson
T:John M. Deveneau & John McPherson, 1900
T:Public Domain Courtesy of the Cyber Hymnal™
T:Public Domain Courtesy of the Cyber Hymnal™
C:John McPherson
Z:Public Domain
Z:Courtesy of the Cyber Hymnal™
%%score ( 1 2 ) ( 3 4 )
L:1/8
Q:1/4=102
M:4/4
K:F
V:1 treble 
V:2 treble 
V:3 bass 
V:4 bass 
V:1
 [CF]2 [CF]2 F[FG][FA][GB] | [Ac]2 [Bd]2 [Ac]2 [FA]2 | [EB][EB][GB][EB] [EG]2 [GB]2 | [FA]6 z2 | %4
w: 1.~Storm tossed soul on life’s rough,|heav- ing o- cean,|Doubts and fears thy bo- som|fill;|
w: 2.~Sin has long in strong- est|chains en- thralled thee,|Cap- tive led at Sa- tan’s|will;|
w: 3.~Sin sick soul, just now the|Great Phy- si- cian|Of- fers balm for ev- ery|ill;|
w: 4.~Soon the storms of life will|end in glo- ry,|Let this theme thy bo- som|fill;|
 F2 F2 F[FG][FA][GB] | [Ac]2 [Bd]2 [Ac]2 [FA]2 | [GB][EG][CE]C [CF]2 [CG]2 | [CF]6 || %8
w: List! a- bove the wild and|great com- mo- tion,|Je- sus speaks the “Peace, be|still!”|
w: Mer- cy sweet- ly plead- ing|long has called thee,|But ye hear not, “Peace, be|still!”|
w: Bow thy heart in hum- ble,|deep con- tri- tion,|Lend thine ear to “Peace, be|still!”|
w: When death’s sha- dow waves are|clos- ing o’er thee,|May you hear His “Peace, be|still!”|
"^Refrain" c>A | B2 E2 E2 z2 | z2 [FA]2 [FA]2 [EG][FA] | [GB][GB][GB][GB] ([EG][FA]) [GB]2 | %12
w: ||||
w: Peace be|still, * *|be still, Sweet the|whis- per to thy wea- * ry|
w: ||||
w: ||||
 [FA]6 c>A | B2 E2 E2 z2 | z2 [FA]2 [FA]2 z [Fc] | [Fd][Fc][FA][CF] [FA]2 [EG]2 | %16
w: ||||
w: soul, Peace be|still, * *|be still, For|Je- sus now will make thee|
w: ||||
w: ||||
 !fermata!F6 !fermata!z2 |] %17
w: |
w: whole.|
w: |
w: |
V:2
 x4 F x3 | x8 | x8 | x8 | F2 F2 F x3 | x8 | x3 C x4 | x6 || x2 | x8 | x8 | x8 | x8 | x8 | x8 | x8 | %16
 (F2 DD C2) x2 |] %17
V:3
 [F,A,]2 [F,A,]2 [F,A,][F,B,][F,C][F,C] | [F,F]2 [F,F]2 [F,F]2 [F,C]2 | %2
w: ~ ~ ~ ~ ~ ~|~ ~ ~ ~|
 [G,C][G,C][E,C][C,C] [C,C]2 [C,C]2 | [F,C]6 z2 | [F,A,]2 [F,A,]2 [F,A,][F,B,][F,C][F,C] | %5
w: ~ ~ ~ ~ ~ ~|~|~ ~ ~ ~ ~ ~|
 [F,F]2 [F,F]2 [F,F]2 [F,C]2 | [C,C][C,B,][C,G,][C,B,] [C,A,]2 [C,B,]2 | [F,A,]6 || z2 | %9
w: ~ ~ ~ ~|~ ~ ~ ~ ~ ~|~||
 z2 [C,G,]2 [C,G,]2 D,>E, | z2 C2 C2 [C,C][C,C] | [C,C][C,C][C,C][C,C] [C,C]2 [C,C]2 | C6 z2 | %13
w: Be still, Peace, be|still, ~ ~ ~|~ ~ ~ ~ ~ ~|~|
 z2 [C,G,]2 [C,G,]2 D,>E, | z2 C2 C2 z [F,A,] | [F,B,][F,A,][F,C][A,,C] [C,C]2 (CB,) | %16
w: ~ Peace be still,|be still, Peace|be still, ~ ~ ~ ~ *|
 !fermata!A,2 B,B, !fermata!A,2 z2 |] %17
w: ~ ~ ~ ~|
V:4
 x8 | x8 | x8 | x8 | x8 | x8 | x8 | x6 || x2 | x8 | F,6 x2 | x8 | F,2 C,A,, F,,2 x2 | x8 | F,4 x4 | %15
 x6 C,2 | F,6 x2 |] %17

